X: 80
T:Schottische
M:4/4
L:1/8
R:Schottische
K:Gm
Z:Steve Mansfield
D2 | GAGF G2A2 | BcBA B2c2 | dedc dedc | d6 :|
|: d2dd d2dd | d2c2 f4 | c2d2B2G2 | G4G4 :|
<end>
<start>
